svg/fluentui-system-icons/ic_fluent_text_indent_decrease_ltr_90_20_filled.svg

<svg width="20" height="20" viewBox="0 0 20 20" fill="none" xmlns="http://www.w3.org/2000/svg">
<path d="M10.9697 4.78033C11.2626 5.07322 11.7374 5.07322 12.0303 4.78033C12.3232 4.48744 12.3232 4.01256 12.0303 3.71967L10.5303 2.21967C10.2374 1.92678 9.76256 1.92678 9.46967 2.21967L7.96967 3.71967C7.67678 4.01256 7.67678 4.48744 7.96967 4.78033C8.26256 5.07322 8.73744 5.07322 9.03033 4.78033L10 3.81066L10.9697 4.78033ZM6.25 7.75C6.25 7.33579 5.91421 7 5.5 7C5.08579 7 4.75 7.33579 4.75 7.75V14.25C4.75 14.6642 5.08579 15 5.5 15C5.91421 15 6.25 14.6642 6.25 14.25V7.75ZM15.25 7.75C15.25 7.33579 14.9142 7 14.5 7C14.0858 7 13.75 7.33579 13.75 7.75V14.25C13.75 14.6642 14.0858 15 14.5 15C14.9142 15 15.25 14.6642 15.25 14.25V7.75ZM10 7C10.4142 7 10.75 7.33579 10.75 7.75V17.25C10.75 17.6642 10.4142 18 10 18C9.58579 18 9.25 17.6642 9.25 17.25V7.75C9.25 7.33579 9.58579 7 10 7Z" fill="#212121"/>
</svg>

<svg xmlns="http://www.w3.org/2000/svg" width="20" height="20"><path d="M10.97 4.78a.75.75 0 1 0 1.06-1.06l-1.5-1.5a.75.75 0 0 0-1.06 0l-1.5 1.5a.75.75 0 0 0 1.06 1.06l.97-.97.97.97ZM6.25 7.75a.75.75 0 0 0-1.5 0v6.5a.75.75 0 0 0 1.5 0v-6.5Zm9 0a.75.75 0 0 0-1.5 0v6.5a.75.75 0 0 0 1.5 0v-6.5ZM10 7a.75.75 0 0 1 .75.75v9.5a.75.75 0 0 1-1.5 0v-9.5A.75.75 0 0 1 10 7Z"/></svg>
